svg/s/GT.svg

<svg width="16" height="12" viewBox="0 0 16 12" fill="none" xmlns="http://www.w3.org/2000/svg">
<g clip-path="url(#clip0_270_55158)">
<rect width="16" height="12" fill="white"/>
<path fill-rule="evenodd" clip-rule="evenodd" d="M11 0H16V12H11V0Z" fill="#58A5FF"/>
<path fill-rule="evenodd" clip-rule="evenodd" d="M0 0H6V12H0V0Z" fill="#58A5FF"/>
<path fill-rule="evenodd" clip-rule="evenodd" d="M5 0H11V12H5V0Z" fill="white"/>
<path d="M6.38231 8.51869L6.01904 8.17512L9.86277 4.11107L10.226 4.45464L6.38231 8.51869Z" fill="#C6C6C6"/>
<path fill-rule="evenodd" clip-rule="evenodd" d="M6.49241 4.0527C6.49241 4.0527 5.26196 4.79529 5.26196 6.65688C5.26196 8.51847 8.25761 8.77032 8.25761 8.77032C8.25761 8.77032 6.46492 7.67688 6.23029 6.89408C5.99566 6.11129 6.49241 4.0527 6.49241 4.0527Z" fill="#5AB92D"/>
<path fill-rule="evenodd" clip-rule="evenodd" d="M9.52718 4.0527C9.52718 4.0527 10.7576 4.79529 10.7576 6.65688C10.7576 8.51847 7.76198 8.77032 7.76198 8.77032C7.76198 8.77032 9.64588 7.68991 9.90991 6.65688C10.1739 5.62385 9.52718 4.0527 9.52718 4.0527Z" fill="#5AB92D"/>
<path d="M7.40387 3.79977L7.90183 3.84497C7.88545 4.02539 7.98401 4.20902 8.22769 4.40611C9.01202 5.04048 9.43359 5.83179 9.10322 6.73102C8.86349 7.38353 8.53788 7.93447 8.12588 8.38196L7.75804 8.04329C8.12388 7.64595 8.41599 7.15168 8.63389 6.55859C8.87118 5.91273 8.55 5.30986 7.91326 4.79487C7.55046 4.50144 7.3706 4.16632 7.40387 3.79977Z" fill="#5AB92D"/>
<path fill-rule="evenodd" clip-rule="evenodd" d="M7.08691 4.90446L7.61155 6.38755H7.2259C7.2259 6.38755 7.08691 6.85558 7.34923 6.85558C7.61155 6.85558 8.96335 6.85558 8.96335 6.85558C8.96335 6.85558 9.13909 6.73822 9.05122 6.38755C8.96335 6.03687 8.51936 5.0688 8.51936 5.0688C8.51936 5.0688 8.70908 4.90814 8.70908 4.78905C8.70908 4.66996 8.51936 4.65685 8.51936 4.65685H7.3218C7.16894 4.68327 7.08691 4.90446 7.08691 4.90446Z" fill="#EFE298"/>
</g>
<defs>
<clipPath id="clip0_270_55158">
<rect width="16" height="12" fill="white"/>
</clipPath>
</defs>
</svg>

<svg width="16" height="12" fill="none" xmlns="http://www.w3.org/2000/svg">
  <mask id="a" maskUnits="userSpaceOnUse" x="0" y="0" width="16" height="12">
    <path fill="#fff" d="M0 0h16v12H0z"/>
  </mask>
  <g mask="url(#a)">
    <path fill-rule="evenodd" clip-rule="evenodd" d="M11 0h5v12h-5V0zM0 0h6v12H0V0z" fill="#58A5FF"/>
    <path fill-rule="evenodd" clip-rule="evenodd" d="M5 0h6v12H5V0z" fill="#fff"/>
    <path d="M6.382 8.519l-.363-.344 3.844-4.064.363.344-3.844 4.064z" fill="#C6C6C6"/>
    <path fill-rule="evenodd" clip-rule="evenodd" d="M6.492 4.053s-1.23.742-1.23 2.604c0 1.861 2.996 2.113 2.996 2.113S6.465 7.677 6.23 6.894c-.234-.783.262-2.841.262-2.841z" fill="#5AB92D"/>
    <path fill-rule="evenodd" clip-rule="evenodd" d="M9.527 4.053s1.23.742 1.23 2.604c0 1.861-2.995 2.113-2.995 2.113S9.646 7.69 9.91 6.657c.264-1.033-.383-2.604-.383-2.604z" fill="#5AB92D"/>
    <path d="M7.404 3.8l.498.045c-.017.18.082.364.326.561.784.634 1.206 1.426.875 2.325-.24.653-.565 1.203-.977 1.651l-.368-.339c.366-.397.658-.891.876-1.484.237-.646-.084-1.25-.72-1.764-.364-.294-.543-.629-.51-.995z" fill="#5AB92D"/>
    <path fill-rule="evenodd" clip-rule="evenodd" d="M7.087 4.904l.525 1.484h-.386s-.14.468.123.468h1.614s.176-.118.088-.468c-.088-.351-.532-1.32-.532-1.32s.19-.16.19-.279c0-.119-.19-.132-.19-.132H7.322c-.153.026-.235.247-.235.247z" fill="#EFE298"/>
  </g>
</svg>
